X:93
T:John D. Burgess 
C:Joe Buchanan's Scottish Tome - Page 116.0
I:116 0
R:Jig
Z:Carl Allison
L:1/8
M:6/8
K:Dmaj
A | "D"f3 g>fe | "D"d3 A3 | "D"d2 e "F#m"f2 a | "Bm"a>gf "A7"{f}(e2 A) |
"D"{f}f3 "G"g>fe | "D"{c}d3 "A7"(c2 B) | "D"A>df "A7"a>Ag | "D"f>A"A7"e "D"d3 :|
A | "D"f2 d "A7"e2 B | "Em7"d>cB "D"A3 | "D"d2 e "F#m"f2 a | "Bm"a>gf "A7"{f}(e2 A) |
"D"f2 d "A7"e2 B | "Em7"d>cB "D"A3 | "D"A>df "A7"a>Ag | "D"f>Ae "D"(d2 A) |
"D"f2 d "A7"e2 B | "Em7"d>cB "D"A3 | "D"d2 e "F#m"f2 a | "Bm"a>gf "A7"{f}(e2 A) |
"D"f3 "G"g>fe | "D"{c}d3 "A7"(c2 B) | "D"A>df "A7"a>Ag | "D"f>A"A7"e "D"d3 |
"D"A>df (a2 g) | "D"f>de f3 | "A7"A>ce (g2 f) | e>Bc d>cB |
"D"A>df (a2 g) | "D"f>de (f2 B) | "D"A>df "A7"a>Ag | "D"f>Ae "D"d3 :|
g | "D"a>Aa (a2 g) | {g}f3 A3 | "D"{c}d2 e "F#m"f2 a | "Bm"a>gf "A7"(e2 g) |
"D"a>Aa (a2 g) | "D"{g}f3 (d2 B) | "D"A>df "A7"a>Ag | "D"f>A"A7"e "D"(d2 g) |
"D"a>Aa (a2 g) | {g}f3 A3 | "D"d2 e "F#m"f2 a | "Bm"a>gf "A7"(e2 A) |
"D"{g}f3 "G"g>fe | "D"d3 "A7"(c2 B) | "D"A>df "A7"a>Ag | "D"f>A"A7"e "D"d3 |]

